; generated by Slic3r 1.3.0-dev on 2018-03-17 at 00:01:33

; external perimeters extrusion width = 0.44mm (1.79mm^3/s)
; perimeters extrusion width = 0.56mm (4.65mm^3/s)
; infill extrusion width = 0.50mm (4.11mm^3/s)
; solid infill extrusion width = 0.56mm (4.65mm^3/s)
; top infill extrusion width = 0.56mm (1.55mm^3/s)

M190 S60 ; set bed temperature and wait for it to be reached
M104 S208 ; set temperature
G28 ; home all axes


; Filament gcode

M109 S208 ; set temperature and wait for it to be reached
G21 ; set units to millimeters
G90 ; use absolute coordinates
M82 ; use absolute distances for extrusion
G92 E0
M106 S255
G1 E-4.50000 F4200.00000
G92 E0
G1 Z0.300 F6000.000
G1 X84.656 Y85.656 F6000.000
G1 E4.50000 F4200.00000
G1 F1200
G1 X86.418 Y84.118 E4.58623
G1 X88.592 Y83.259 E4.67246
G1 X90.000 Y83.113 E4.72464
G1 X110.000 Y83.113 E5.46206
G1 X112.305 Y83.510 E5.54829
G1 X114.344 Y84.656 E5.63452
G1 X115.882 Y86.418 E5.72075
G1 X116.741 Y88.592 E5.80698
G1 X116.887 Y90.000 E5.85916
G1 X116.887 Y110.000 E6.59658
G1 X116.490 Y112.305 E6.68281
G1 X115.344 Y114.344 E6.76904
G1 X113.582 Y115.882 E6.85528
G1 X111.408 Y116.741 E6.94151
G1 X110.000 Y116.887 E6.99368
G1 X90.000 Y116.887 E7.73111
G1 X87.695 Y116.490 E7.81734
G1 X85.656 Y115.344 E7.90357
G1 X84.118 Y113.582 E7.98980
G1 X83.259 Y111.408 E8.07603
G1 X83.113 Y110.000 E8.12820
G1 X83.113 Y90.000 E8.86563
G1 X83.510 Y87.695 E8.95186
G1 X84.626 Y85.709 E9.03588
G1 X84.949 Y85.766 F6000.000
G1 F1200
G1 X86.700 Y84.294 E9.12022
G1 X88.849 Y83.510 E9.20457
G1 X90.000 Y83.409 E9.24716
G1 X110.000 Y83.409 E9.98459
G1 X112.253 Y83.806 E10.06893
G1 X114.234 Y84.949 E10.15328
G1 X115.706 Y86.700 E10.23762
G1 X116.490 Y88.849 E10.32197
G1 X116.591 Y90.000 E10.36456
G1 X116.591 Y110.000 E11.10199
G1 X116.194 Y112.253 E11.18633
G1 X115.051 Y114.234 E11.27068
G1 X113.300 Y115.706 E11.35503
G1 X111.151 Y116.490 E11.43937
G1 X110.000 Y116.591 E11.48196
G1 X90.000 Y116.591 E12.21939
G1 X87.747 Y116.194 E12.30374
G1 X85.766 Y115.051 E12.38808
G1 X84.294 Y113.300 E12.47243
G1 X83.510 Y111.151 E12.55677
G1 X83.409 Y110.000 E12.59936
G1 X83.409 Y90.000 E13.33679
G1 X83.806 Y87.747 E13.42114
G1 X84.919 Y85.818 E13.50327
G1 X85.242 Y85.878 F6000.000
G1 F1200
G1 X86.982 Y84.475 E13.58569
G1 X90.000 Y83.704 E13.70054
G1 X110.000 Y83.704 E14.43796
G1 X112.200 Y84.101 E14.52038
G1 X114.122 Y85.242 E14.60280
G1 X115.525 Y86.982 E14.68522
G1 X116.296 Y90.000 E14.80007
G1 X116.296 Y110.000 E15.53749
G1 X115.899 Y112.200 E15.61991
G1 X114.758 Y114.122 E15.70233
G1 X113.018 Y115.525 E15.78474
G1 X110.000 Y116.296 E15.89959
G1 X90.000 Y116.296 E16.63702
G1 X87.800 Y115.899 E16.71944
G1 X85.878 Y114.758 E16.80186
G1 X84.475 Y113.018 E16.88427
G1 X83.704 Y110.000 E16.99912
G1 X83.704 Y90.000 E17.73655
G1 X84.101 Y87.800 E17.81897
G1 X85.211 Y85.929 E17.89917
G1 F4800
G1 X86.982 Y84.475 E15.99428
G1 F4800
G1 X89.745 Y83.770 E13.62417
G1 E13.39917 F4200.00000
G92 E0
G1 X89.111 Y89.632 F6000.000
G1 E4.50000 F4200.00000
G1 F1200
G1 X89.632 Y89.111 E4.53063
G1 X110.368 Y89.111 E5.39277
G1 X110.889 Y89.632 E5.42340
G1 X110.889 Y110.368 E6.28553
G1 X110.368 Y110.889 E6.31617
G1 X89.632 Y110.889 E7.17830
G1 X89.111 Y110.368 E7.20893
G1 X89.111 Y89.692 E8.06858
G1 X89.444 Y89.770 F6000.000
G1 F1200
G1 X89.770 Y89.444 E8.08773
G1 X110.230 Y89.444 E8.93838
G1 X110.556 Y89.770 E8.95753
G1 X110.556 Y110.230 E9.80819
G1 X110.230 Y110.556 E9.82734
G1 X89.770 Y110.556 E10.67799
G1 X89.444 Y110.230 E10.69715
G1 X89.444 Y89.830 E11.54531
G1 X89.908 Y89.777 F6000.000
G1 F1200
G1 X110.092 Y89.777 E12.38448
G1 X110.223 Y89.908 E12.39215
G1 X110.223 Y110.092 E13.23132
G1 X110.092 Y110.223 E13.23899
G1 X89.908 Y110.223 E14.07817
G1 X89.777 Y110.092 E14.08584
G1 X89.777 Y89.908 E14.92501
G1 X89.865 Y89.820 E14.93019
G1 F4800
G1 X95.008 Y89.809 E10.65519
G1 E10.43019 F4200.00000
G92 E0
G1 X109.820 Y109.820 F6000.000
G1 E4.50000 F4200.00000
G1 F1200
G1 X90.180 Y109.820 E5.22415
G1 X90.180 Y90.180 E5.94830
G1 X109.820 Y90.180 E6.67246
G1 X109.820 Y109.760 E7.39440
G1 X109.434 Y109.716 F6000.000
G1 X109.524 Y109.524 F6000.000
G1 F1200
G1 X90.476 Y109.524 E8.09675
G1 X90.476 Y90.476 E8.79910
G1 X109.524 Y90.476 E9.50145
G1 X109.524 Y109.464 E10.20159
G1 X109.229 Y109.229 F6000.000
G1 F1200
G1 X90.771 Y109.229 E10.88215
G1 X90.771 Y90.771 E11.56270
G1 X109.229 Y90.771 E12.24325
G1 X109.229 Y109.169 E12.92159
G1 X108.902 Y108.965 F6000.000
G1 F1200
G1 X108.965 Y108.902 E12.92489
G1 X108.965 Y108.481 E12.94047
G1 X108.481 Y108.965 E12.96581
G1 X108.061 Y108.965 E12.98140
G1 X108.965 Y108.061 E13.02877
G1 X108.965 Y107.641 E13.04436
G1 X107.641 Y108.965 E13.11378
G1 X107.220 Y108.965 E13.12936
G1 X108.965 Y107.220 E13.22083
G1 X108.965 Y106.800 E13.23641
G1 X106.800 Y108.965 E13.34991
G1 X106.379 Y108.965 E13.36550
G1 X108.965 Y106.379 E13.50104
G1 X108.965 Y105.959 E13.51663
G1 X105.959 Y108.965 E13.67422
G1 X105.539 Y108.965 E13.68980
G1 X108.965 Y105.539 E13.86943
G1 X108.965 Y105.118 E13.88501
G1 X105.118 Y108.965 E14.08668
G1 X104.698 Y108.965 E14.10227
G1 X108.965 Y104.698 E14.32598
G1 X108.965 Y104.277 E14.34156
G1 X104.277 Y108.965 E14.58732
G1 X103.857 Y108.965 E14.60290
G1 X108.965 Y103.857 E14.87069
G1 X108.965 Y103.437 E14.88628
G1 X103.437 Y108.965 E15.17612
G1 X103.016 Y108.965 E15.19170
G1 X108.965 Y103.016 E15.50358
G1 X108.965 Y102.596 E15.51916
G1 X102.596 Y108.965 E15.85308
G1 X102.176 Y108.965 E15.86867
G1 X108.965 Y102.176 E16.22462
G1 X108.965 Y101.755 E16.24021
G1 X101.755 Y108.965 E16.61821
G1 X101.335 Y108.965 E16.63380
G1 X108.965 Y101.335 E17.03384
G1 X108.965 Y100.914 E17.04942
G1 X100.914 Y108.965 E17.47151
G1 X100.494 Y108.965 E17.48709
G1 X108.965 Y100.494 E17.93122
G1 X108.965 Y100.074 E17.94680
G1 X100.074 Y108.965 E18.41297
G1 X99.653 Y108.965 E18.42856
G1 X108.965 Y99.653 E18.91676
G1 X108.965 Y99.233 E18.93235
G1 X99.233 Y108.965 E19.44260
G1 X98.813 Y108.965 E19.45818
G1 X108.965 Y98.813 E19.99048
G1 X108.965 Y98.392 E20.00606
G1 X98.392 Y108.965 E20.56039
G1 X97.972 Y108.965 E20.57598
G1 X108.965 Y97.972 E21.15235
G1 X108.965 Y97.551 E21.16794
G1 X97.551 Y108.965 E21.76635
G1 X97.131 Y108.965 E21.78194
G1 X108.965 Y97.131 E22.40240
G1 X108.965 Y96.711 E22.41798
G1 X96.711 Y108.965 E23.06048
G1 X96.290 Y108.965 E23.07607
G1 X108.965 Y96.290 E23.74061
G1 X108.965 Y95.870 E23.75619
G1 X95.870 Y108.965 E24.44277
G1 X95.449 Y108.965 E24.45836
G1 X108.965 Y95.449 E25.16698
G1 X108.965 Y95.029 E25.18257
G1 X95.029 Y108.965 E25.91323
G1 X94.609 Y108.965 E25.92882
G1 X108.965 Y94.609 E26.68152
G1 X108.965 Y94.188 E26.69711
G1 X94.188 Y108.965 E27.47185
G1 X93.768 Y108.965 E27.48744
G1 X108.965 Y93.768 E28.28423
G1 X108.965 Y93.348 E28.29981
G1 X93.348 Y108.965 E29.11864
G1 X92.927 Y108.965 E29.13423
G1 X108.965 Y92.927 E29.97510
G1 X108.965 Y92.507 E29.99069
G1 X92.507 Y108.965 E30.85360
G1 X92.086 Y108.965 E30.86919
G1 X108.965 Y92.086 E31.75414
G1 X108.965 Y91.666 E31.76973
G1 X91.666 Y108.965 E32.67672
G1 X91.246 Y108.965 E32.69231
G1 X108.965 Y91.246 E33.62134
G1 X108.965 Y91.035 E33.62914
G1 X108.754 Y91.035 E33.63693
G1 X91.035 Y108.754 E34.56597
G1 X91.035 Y108.334 E34.58155
G1 X108.334 Y91.035 E35.48855
G1 X107.914 Y91.035 E35.50414
G1 X91.035 Y107.914 E36.38909
G1 X91.035 Y107.493 E36.40468
G1 X107.493 Y91.035 E37.26759
G1 X107.073 Y91.035 E37.28318
G1 X91.035 Y107.073 E38.12405
G1 X91.035 Y106.652 E38.13964
G1 X106.652 Y91.035 E38.95847
G1 X106.232 Y91.035 E38.97405
G1 X91.035 Y106.232 E39.77084
G1 X91.035 Y105.812 E39.78643
G1 X105.812 Y91.035 E40.56118
G1 X105.391 Y91.035 E40.57676
G1 X91.035 Y105.391 E41.32947
G1 X91.035 Y104.971 E41.34505
G1 X104.971 Y91.035 E42.07572
G1 X104.551 Y91.035 E42.09130
G1 X91.035 Y104.551 E42.79993
G1 X91.035 Y104.130 E42.81551
G1 X104.130 Y91.035 E43.50210
G1 X103.710 Y91.035 E43.51768
G1 X91.035 Y103.710 E44.18222
G1 X91.035 Y103.289 E44.19781
G1 X103.289 Y91.035 E44.84031
G1 X102.869 Y91.035 E44.85589
G1 X91.035 Y102.869 E45.47635
G1 X91.035 Y102.449 E45.49194
G1 X102.449 Y91.035 E46.09035
G1 X102.028 Y91.035 E46.10594
G1 X91.035 Y102.028 E46.68231
G1 X91.035 Y101.608 E46.69790
G1 X101.608 Y91.035 E47.25223
G1 X101.187 Y91.035 E47.26782
G1 X91.035 Y101.187 E47.80011
G1 X91.035 Y100.767 E47.81569
G1 X100.767 Y91.035 E48.32594
G1 X100.347 Y91.035 E48.34153
G1 X91.035 Y100.347 E48.82974
G1 X91.035 Y99.926 E48.84533
G1 X99.926 Y91.035 E49.31149
G1 X99.506 Y91.035 E49.32708
G1 X91.035 Y99.506 E49.77120
G1 X91.035 Y99.086 E49.78679
G1 X99.086 Y91.035 E50.20887
G1 X98.665 Y91.035 E50.22446
G1 X91.035 Y98.665 E50.62450
G1 X91.035 Y98.245 E50.64009
G1 X98.245 Y91.035 E51.01809
G1 X97.824 Y91.035 E51.03368
G1 X91.035 Y97.824 E51.38964
G1 X91.035 Y97.404 E51.40522
G1 X97.404 Y91.035 E51.73914
G1 X96.984 Y91.035 E51.75473
G1 X91.035 Y96.984 E52.06660
G1 X91.035 Y96.563 E52.08219
G1 X96.563 Y91.035 E52.37202
G1 X96.143 Y91.035 E52.38761
G1 X91.035 Y96.143 E52.65540
G1 X91.035 Y95.723 E52.67099
G1 X95.723 Y91.035 E52.91674
G1 X95.302 Y91.035 E52.93233
G1 X91.035 Y95.302 E53.15604
G1 X91.035 Y94.882 E53.17162
G1 X94.882 Y91.035 E53.37329
G1 X94.461 Y91.035 E53.38888
G1 X91.035 Y94.461 E53.56851
G1 X91.035 Y94.041 E53.58409
G1 X94.041 Y91.035 E53.74168
G1 X93.621 Y91.035 E53.75727
G1 X91.035 Y93.621 E53.89281
G1 X91.035 Y93.200 E53.90840
G1 X93.200 Y91.035 E54.02190
G1 X92.780 Y91.035 E54.03749
G1 X91.035 Y92.780 E54.12895
G1 X91.035 Y92.359 E54.14453
G1 X92.359 Y91.035 E54.21395
G1 X91.939 Y91.035 E54.22954
G1 X91.035 Y91.939 E54.27692
G1 X91.035 Y91.519 E54.29250
G1 X91.519 Y91.035 E54.31784
G1 X91.098 Y91.035 E54.33343
G1 X91.036 Y91.098 E54.33672
G1 F4800
G1 X91.098 Y91.035 E54.26300
G1 F4800
G1 X91.519 Y91.035 E53.91356
G1 F4800
G1 X91.035 Y91.519 E53.34547
G1 F4800
G1 X91.035 Y91.939 E52.99602
G1 F4800
G1 X91.939 Y91.035 E51.93375
G1 F4800
G1 X92.359 Y91.035 E51.58431
G1 F4800
G1 X91.064 Y92.331 E50.06172
G1 E49.83672 F4200.00000
G92 E0
G1 Z0.500 F6000.000
G1 X108.806 Y108.806 F6000.000
G1 E4.50000 F4200.00000
G1 F2700
G1 X91.194 Y108.806 E5.25722
G1 X91.194 Y91.194 E6.01444
G1 X108.806 Y91.194 E6.77166
G1 X108.806 Y108.746 E7.52630
G1 X109.323 Y109.323 F6000.000
G1 F2700
G1 X90.677 Y109.323 E8.32799
G1 X90.677 Y90.677 E9.12967
G1 X109.323 Y90.677 E9.93136
G1 X109.323 Y109.263 E10.73046
G1 X109.780 Y109.780 F6000.000
G1 F1350
G1 X90.220 Y109.780 E11.37628
G1 X90.220 Y90.220 E12.02210
G1 X109.780 Y90.220 E12.66792
G1 X109.780 Y109.720 E13.31175
G1 X109.394 Y109.676 F6000.000
G1 X108.344 Y91.766 F6000.000
G1 F2700
G1 X108.234 Y91.656 E13.31848
G1 X107.497 Y91.656 E13.35040
G1 X108.344 Y92.503 E13.40226
G1 X108.344 Y93.240 E13.43418
G1 X106.760 Y91.656 E13.53118
G1 X106.023 Y91.656 E13.56310
G1 X108.344 Y93.977 E13.70524
G1 X108.344 Y94.713 E13.73716
G1 X105.287 Y91.656 E13.92443
G1 X104.550 Y91.656 E13.95635
G1 X108.344 Y95.450 E14.18876
G1 X108.344 Y96.187 E14.22068
G1 X103.813 Y91.656 E14.49823
G1 X103.076 Y91.656 E14.53015
G1 X108.344 Y96.924 E14.85284
G1 X108.344 Y97.660 E14.88475
G1 X102.340 Y91.656 E15.25258
G1 X101.603 Y91.656 E15.28449
G1 X108.344 Y98.397 E15.69746
G1 X108.344 Y99.134 E15.72937
G1 X100.866 Y91.656 E16.18747
G1 X100.129 Y91.656 E16.21939
G1 X108.344 Y99.871 E16.72262
G1 X108.344 Y100.607 E16.75454
G1 X99.393 Y91.656 E17.30291
G1 X98.656 Y91.656 E17.33483
G1 X108.344 Y101.344 E17.92834
G1 X108.344 Y102.081 E17.96026
G1 X97.919 Y91.656 E18.59890
G1 X97.182 Y91.656 E18.63082
G1 X108.344 Y102.818 E19.31460
G1 X108.344 Y103.555 E19.34652
G1 X96.445 Y91.656 E20.07544
G1 X95.709 Y91.656 E20.10736
G1 X108.344 Y104.291 E20.88141
G1 X108.344 Y105.028 E20.91333
G1 X94.972 Y91.656 E21.73253
G1 X94.235 Y91.656 E21.76444
G1 X108.344 Y105.765 E22.62877
G1 X108.344 Y106.502 E22.66069
G1 X93.498 Y91.656 E23.57016
G1 X92.762 Y91.656 E23.60208
G1 X108.344 Y107.238 E24.55668
G1 X108.344 Y107.975 E24.58860
G1 X92.025 Y91.656 E25.58834
G1 X91.656 Y91.656 E25.60430
G1 X91.656 Y92.025 E25.62026
G1 X107.975 Y108.344 E26.62000
G1 X107.238 Y108.344 E26.65192
G1 X91.656 Y92.762 E27.60652
G1 X91.656 Y93.498 E27.63844
G1 X106.502 Y108.344 E28.54791
G1 X105.765 Y108.344 E28.57983
G1 X91.656 Y94.235 E29.44416
G1 X91.656 Y94.972 E29.47608
G1 X105.028 Y108.344 E30.29527
G1 X104.291 Y108.344 E30.32719
G1 X91.656 Y95.709 E31.10125
G1 X91.656 Y96.445 E31.13317
G1 X103.555 Y108.344 E31.86209
G1 X102.818 Y108.344 E31.89400
G1 X91.656 Y97.182 E32.57779
G1 X91.656 Y97.919 E32.60971
G1 X102.081 Y108.344 E33.24835
G1 X101.344 Y108.344 E33.28027
G1 X91.656 Y98.656 E33.87378
G1 X91.656 Y99.392 E33.90570
G1 X100.608 Y108.344 E34.45407
G1 X99.871 Y108.344 E34.48599
G1 X91.656 Y100.129 E34.98923
G1 X91.656 Y100.866 E35.02114
G1 X99.134 Y108.344 E35.47924
G1 X98.397 Y108.344 E35.51116
G1 X91.656 Y101.603 E35.92412
G1 X91.656 Y102.340 E35.95604
G1 X97.660 Y108.344 E36.32386
G1 X96.924 Y108.344 E36.35578
G1 X91.656 Y103.076 E36.67847
G1 X91.656 Y103.813 E36.71039
G1 X96.187 Y108.344 E36.98794
G1 X95.450 Y108.344 E37.01985
G1 X91.656 Y104.550 E37.25227
G1 X91.656 Y105.287 E37.28419
G1 X94.713 Y108.344 E37.47146
G1 X93.977 Y108.344 E37.50338
G1 X91.656 Y106.023 E37.64552
G1 X91.656 Y106.760 E37.67744
G1 X93.240 Y108.344 E37.77444
G1 X92.503 Y108.344 E37.80636
G1 X91.656 Y107.497 E37.85823
G1 X91.656 Y108.234 E37.89014
G1 X91.766 Y108.343 E37.89686
G1 F4800
G1 X91.656 Y108.234 E37.76792
G1 F4800
G1 X91.656 Y107.497 E37.15547
G1 F4800
G1 X92.503 Y108.344 E36.16021
G1 F4800
G1 X93.240 Y108.344 E35.54777
G1 F4800
G1 X91.656 Y106.760 E33.68638
G1 F4800
G1 X91.656 Y106.683 E33.62186
G1 E33.39686 F4200.00000
G92 E0
G1 Z0.700 F6000.000
G1 X108.806 Y108.806 F6000.000
G1 E4.50000 F4200.00000
G1 F2700
G1 X91.194 Y108.806 E5.25722
G1 X91.194 Y91.194 E6.01444
G1 X108.806 Y91.194 E6.77166
G1 X108.806 Y108.746 E7.52630
G1 X109.323 Y109.323 F6000.000
G1 F2700
G1 X90.677 Y109.323 E8.32799
G1 X90.677 Y90.677 E9.12967
G1 X109.323 Y90.677 E9.93136
G1 X109.323 Y109.263 E10.73046
G1 X109.780 Y109.780 F6000.000
G1 F1350
G1 X90.220 Y109.780 E11.37628
G1 X90.220 Y90.220 E12.02210
G1 X109.780 Y90.220 E12.66792
G1 X109.780 Y109.720 E13.31175
G1 X109.394 Y109.676 F6000.000
G1 X108.234 Y108.344 F6000.000
G1 F2700
G1 X108.344 Y108.234 E13.31848
G1 X108.344 Y107.497 E13.35040
G1 X107.497 Y108.344 E13.40226
G1 X106.760 Y108.344 E13.43418
G1 X108.344 Y106.760 E13.53118
G1 X108.344 Y106.023 E13.56310
G1 X106.023 Y108.344 E13.70524
G1 X105.287 Y108.344 E13.73716
G1 X108.344 Y105.287 E13.92443
G1 X108.344 Y104.550 E13.95635
G1 X104.550 Y108.344 E14.18876
G1 X103.813 Y108.344 E14.22068
G1 X108.344 Y103.813 E14.49823
G1 X108.344 Y103.076 E14.53015
G1 X103.076 Y108.344 E14.85283
G1 X102.340 Y108.344 E14.88475
G1 X108.344 Y102.340 E15.25258
G1 X108.344 Y101.603 E15.28449
G1 X101.603 Y108.344 E15.69745
G1 X100.866 Y108.344 E15.72937
G1 X108.344 Y100.866 E16.18747
G1 X108.344 Y100.129 E16.21939
G1 X100.129 Y108.344 E16.72262
G1 X99.393 Y108.344 E16.75454
G1 X108.344 Y99.393 E17.30291
G1 X108.344 Y98.656 E17.33483
G1 X98.656 Y108.344 E17.92834
G1 X97.919 Y108.344 E17.96025
G1 X108.344 Y97.919 E18.59890
G1 X108.344 Y97.182 E18.63082
G1 X97.182 Y108.344 E19.31460
G1 X96.445 Y108.344 E19.34652
G1 X108.344 Y96.445 E20.07544
G1 X108.344 Y95.709 E20.10735
G1 X95.709 Y108.344 E20.88141
G1 X94.972 Y108.344 E20.91333
G1 X108.344 Y94.972 E21.73252
G1 X108.344 Y94.235 E21.76444
G1 X94.235 Y108.344 E22.62877
G1 X93.498 Y108.344 E22.66069
G1 X108.344 Y93.498 E23.57016
G1 X108.344 Y92.762 E23.60207
G1 X92.762 Y108.344 E24.55668
G1 X92.025 Y108.344 E24.58860
