; generated by Slic3r 1.3.0-dev on 2018-03-17 at 00:01:42

; external perimeters extrusion width = 0.44mm (1.79mm^3/s)
; perimeters extrusion width = 0.56mm (4.65mm^3/s)
; infill extrusion width = 0.50mm (4.11mm^3/s)
; solid infill extrusion width = 0.56mm (4.65mm^3/s)
; top infill extrusion width = 0.56mm (1.55mm^3/s)

M190 S60 ; set bed temperature and wait for it to be reached
M104 S208 ; set temperature
G28 ; home all axes


; Filament gcode

M109 S208 ; set temperature and wait for it to be reached
G21 ; set units to millimeters
G90 ; use absolute coordinates
M82 ; use absolute distances for extrusion
G92 E0
M106 S255
G1 E-4.50000 F4200.00000
G92 E0
G1 Z0.300 F6000.000
G1 X84.656 Y85.656 F6000.000
G1 E4.50000 F4200.00000
G1 F1200
G1 X86.418 Y84.118 E4.58623
G1 X88.592 Y83.258 E4.67246
G1 X90.000 Y83.113 E4.72464
G1 X110.000 Y83.113 E5.46206
G1 X112.305 Y83.510 E5.54829
G1 X114.344 Y84.655 E5.63452
G1 X115.882 Y86.417 E5.72075
G1 X116.741 Y88.592 E5.80698
G1 X116.887 Y90.000 E5.85916
G1 X116.887 Y110.000 E6.59662
G1 X116.490 Y112.305 E6.68285
G1 X115.344 Y114.344 E6.76908
G1 X113.582 Y115.882 E6.85531
G1 X111.408 Y116.742 E6.94154
G1 X110.000 Y116.887 E6.99372
G1 X90.000 Y116.887 E7.73114
G1 X87.695 Y116.490 E7.81737
G1 X85.656 Y115.345 E7.90360
G1 X84.118 Y113.583 E7.98983
G1 X83.259 Y111.408 E8.07607
G1 X83.113 Y110.000 E8.12824
G1 X83.113 Y90.000 E8.86570
G1 X83.510 Y87.695 E8.95193
G1 X84.626 Y85.708 E9.03595
G1 X84.949 Y85.765 F6000.000
G1 F1200
G1 X86.700 Y84.294 E9.12030
G1 X88.849 Y83.509 E9.20464
G1 X90.000 Y83.408 E9.24723
G1 X110.000 Y83.408 E9.98466
G1 X112.253 Y83.805 E10.06901
G1 X114.234 Y84.948 E10.15335
G1 X115.706 Y86.700 E10.23770
G1 X116.490 Y88.849 E10.32204
G1 X116.591 Y90.000 E10.36464
G1 X116.591 Y110.000 E11.10210
G1 X116.194 Y112.253 E11.18644
G1 X115.051 Y114.235 E11.27079
G1 X113.300 Y115.706 E11.35514
G1 X111.151 Y116.491 E11.43948
G1 X110.000 Y116.592 E11.48207
G1 X90.000 Y116.592 E12.21950
G1 X87.747 Y116.195 E12.30385
G1 X85.766 Y115.052 E12.38819
G1 X84.294 Y113.300 E12.47254
G1 X83.510 Y111.151 E12.55688
G1 X83.409 Y110.000 E12.59947
G1 X83.409 Y90.000 E13.33694
G1 X83.806 Y87.747 E13.42128
G1 X84.919 Y85.817 E13.50342
G1 X85.242 Y85.877 F6000.000
G1 F1200
G1 X86.982 Y84.474 E13.58583
G1 X90.000 Y83.704 E13.70068
G1 X110.000 Y83.704 E14.43811
G1 X112.200 Y84.101 E14.52053
G1 X114.122 Y85.241 E14.60295
G1 X115.525 Y86.981 E14.68536
G1 X116.296 Y90.000 E14.80021
G1 X116.296 Y110.000 E15.53767
G1 X115.899 Y112.200 E15.62009
G1 X114.758 Y114.123 E15.70251
G1 X113.018 Y115.526 E15.78493
G1 X110.000 Y116.296 E15.89978
G1 X90.000 Y116.296 E16.63720
G1 X87.800 Y115.899 E16.71962
G1 X85.878 Y114.759 E16.80204
G1 X84.475 Y113.019 E16.88446
G1 X83.704 Y110.000 E16.99931
G1 X83.704 Y90.000 E17.73677
G1 X84.101 Y87.800 E17.81919
G1 X85.211 Y85.929 E17.89939
G1 F4800
G1 X86.982 Y84.474 E15.99450
G1 F4800
G1 X89.745 Y83.769 E13.62439
G1 E13.39939 F4200.00000
G92 E0
G1 X89.111 Y89.631 F6000.000
G1 E4.50000 F4200.00000
G1 F1200
G1 X89.632 Y89.110 E4.53063
G1 X110.368 Y89.110 E5.39277
G1 X110.889 Y89.631 E5.42340
G1 X110.889 Y110.369 E6.28558
G1 X110.368 Y110.890 E6.31621
G1 X89.632 Y110.890 E7.17834
G1 X89.111 Y110.369 E7.20898
G1 X89.111 Y89.691 E8.06866
G1 X89.444 Y89.769 F6000.000
G1 F1200
G1 X89.770 Y89.443 E8.08781
G1 X110.230 Y89.443 E8.93846
G1 X110.556 Y89.769 E8.95762
G1 X110.556 Y110.231 E9.80831
G1 X110.230 Y110.557 E9.82746
G1 X89.770 Y110.557 E10.67812
G1 X89.444 Y110.231 E10.69727
G1 X89.444 Y89.829 E11.54547
G1 X89.908 Y89.777 F6000.000
G1 F1200
G1 X110.092 Y89.777 E12.38465
G1 X110.223 Y89.907 E12.39232
G1 X110.223 Y110.093 E13.23153
G1 X110.092 Y110.223 E13.23920
G1 X89.908 Y110.223 E14.07838
G1 X89.777 Y110.093 E14.08605
G1 X89.777 Y89.907 E14.92526
G1 X89.865 Y89.819 E14.93044
G1 F4800
G1 X95.008 Y89.808 E10.65544
G1 E10.43044 F4200.00000
G92 E0
G1 X109.820 Y109.820 F6000.000
G1 E4.50000 F4200.00000
G1 F1200
G1 X90.180 Y109.820 E5.22415
G1 X90.180 Y90.180 E5.94834
G1 X109.820 Y90.180 E6.67249
G1 X109.820 Y109.760 E7.39447
G1 X109.434 Y109.717 F6000.000
G1 X109.524 Y109.525 F6000.000
G1 F1200
G1 X90.476 Y109.525 E8.09682
G1 X90.476 Y90.475 E8.79921
G1 X109.524 Y90.475 E9.50156
G1 X109.524 Y109.465 E10.20174
G1 X109.229 Y109.229 F6000.000
G1 F1200
G1 X90.771 Y109.229 E10.88229
G1 X90.771 Y90.771 E11.56288
G1 X109.229 Y90.771 E12.24344
G1 X109.229 Y109.169 E12.92181
G1 X108.902 Y108.965 F6000.000
G1 F1200
G1 X108.965 Y108.902 E12.92511
G1 X108.965 Y108.482 E12.94069
G1 X108.481 Y108.965 E12.96603
G1 X108.061 Y108.965 E12.98162
G1 X108.965 Y108.061 E13.02900
G1 X108.965 Y107.641 E13.04459
G1 X107.640 Y108.965 E13.11401
G1 X107.220 Y108.965 E13.12960
G1 X108.965 Y107.221 E13.22106
G1 X108.965 Y106.800 E13.23665
G1 X106.800 Y108.965 E13.35016
G1 X106.379 Y108.965 E13.36574
G1 X108.965 Y106.380 E13.50130
G1 X108.965 Y105.959 E13.51688
G1 X105.959 Y108.965 E13.67448
G1 X105.539 Y108.965 E13.69006
G1 X108.965 Y105.539 E13.86970
G1 X108.965 Y105.119 E13.88529
G1 X105.118 Y108.965 E14.08697
G1 X104.698 Y108.965 E14.10255
G1 X108.965 Y104.698 E14.32627
G1 X108.965 Y104.278 E14.34186
G1 X104.277 Y108.965 E14.58763
G1 X103.857 Y108.965 E14.60321
G1 X108.965 Y103.857 E14.87102
G1 X108.965 Y103.437 E14.88661
G1 X103.437 Y108.965 E15.17646
G1 X103.016 Y108.965 E15.19204
G1 X108.965 Y103.017 E15.50393
G1 X108.965 Y102.596 E15.51952
G1 X102.596 Y108.965 E15.85346
G1 X102.175 Y108.965 E15.86904
G1 X108.965 Y102.176 E16.22502
G1 X108.965 Y101.756 E16.24061
G1 X101.755 Y108.965 E16.61863
G1 X101.335 Y108.965 E16.63422
G1 X108.965 Y101.335 E17.03428
G1 X108.965 Y100.915 E17.04987
G1 X100.914 Y108.965 E17.47197
G1 X100.494 Y108.965 E17.48756
G1 X108.965 Y100.494 E17.93171
G1 X108.965 Y100.074 E17.94729
G1 X100.073 Y108.965 E18.41348
G1 X99.653 Y108.965 E18.42907
G1 X108.965 Y99.654 E18.91730
G1 X108.965 Y99.233 E18.93289
G1 X99.233 Y108.965 E19.44317
G1 X98.812 Y108.965 E19.45875
G1 X108.965 Y98.813 E19.99107
G1 X108.965 Y98.392 E20.00666
G1 X98.392 Y108.965 E20.56102
G1 X97.971 Y108.965 E20.57661
G1 X108.965 Y97.972 E21.15301
G1 X108.965 Y97.552 E21.16860
G1 X97.551 Y108.965 E21.76705
G1 X97.131 Y108.965 E21.78263
G1 X108.965 Y97.131 E22.40312
G1 X108.965 Y96.711 E22.41871
G1 X96.710 Y108.965 E23.06124
G1 X96.290 Y108.965 E23.07683
G1 X108.965 Y96.290 E23.74141
G1 X108.965 Y95.870 E23.75699
G1 X95.870 Y108.965 E24.44361
G1 X95.449 Y108.965 E24.45920
G1 X108.965 Y95.450 E25.16786
G1 X108.965 Y95.029 E25.18344
G1 X95.029 Y108.965 E25.91415
G1 X94.608 Y108.965 E25.92973
G1 X108.965 Y94.609 E26.68248
G1 X108.965 Y94.188 E26.69807
G1 X94.188 Y108.965 E27.47285
G1 X93.768 Y108.965 E27.48844
G1 X108.965 Y93.768 E28.28527
G1 X108.965 Y93.348 E28.30086
G1 X93.347 Y108.965 E29.11973
G1 X92.927 Y108.965 E29.13532
G1 X108.965 Y92.927 E29.97624
G1 X108.965 Y92.507 E29.99182
G1 X92.506 Y108.965 E30.85478
G1 X92.086 Y108.965 E30.87037
G1 X108.965 Y92.086 E31.75537
G1 X108.965 Y91.666 E31.77096
G1 X91.666 Y108.965 E32.67800
G1 X91.245 Y108.965 E32.69359
G1 X108.965 Y91.246 E33.62268
G1 X108.965 Y91.035 E33.63049
G1 X108.755 Y91.035 E33.63826
G1 X91.035 Y108.754 E34.56735
G1 X91.035 Y108.334 E34.58294
G1 X108.334 Y91.035 E35.48999
G1 X107.914 Y91.035 E35.50557
G1 X91.035 Y107.914 E36.39058
G1 X91.035 Y107.493 E36.40616
G1 X107.494 Y91.035 E37.26913
G1 X107.073 Y91.035 E37.28471
G1 X91.035 Y107.073 E38.12563
G1 X91.035 Y106.652 E38.14122
G1 X106.653 Y91.035 E38.96010
G1 X106.232 Y91.035 E38.97568
G1 X91.035 Y106.232 E39.77252
G1 X91.035 Y105.812 E39.78810
G1 X105.812 Y91.035 E40.56290
G1 X105.392 Y91.035 E40.57848
G1 X91.035 Y105.391 E41.33123
G1 X91.035 Y104.971 E41.34682
G1 X104.971 Y91.035 E42.07752
G1 X104.551 Y91.035 E42.09311
G1 X91.035 Y104.550 E42.80177
G1 X91.035 Y104.130 E42.81736
G1 X104.131 Y91.035 E43.50398
G1 X103.710 Y91.035 E43.51957
G1 X91.035 Y103.710 E44.18415
G1 X91.035 Y103.289 E44.19973
G1 X103.290 Y91.035 E44.84227
G1 X102.869 Y91.035 E44.85785
G1 X91.035 Y102.869 E45.47835
G1 X91.035 Y102.448 E45.49393
G1 X102.449 Y91.035 E46.09238
G1 X102.029 Y91.035 E46.10797
G1 X91.035 Y102.028 E46.68438
G1 X91.035 Y101.608 E46.69996
G1 X101.608 Y91.035 E47.25433
G1 X101.188 Y91.035 E47.26992
G1 X91.035 Y101.187 E47.80224
G1 X91.035 Y100.767 E47.81782
G1 X100.767 Y91.035 E48.32810
G1 X100.347 Y91.035 E48.34369
G1 X91.035 Y100.347 E48.83193
G1 X91.035 Y99.926 E48.84751
G1 X99.927 Y91.035 E49.31371
G1 X99.506 Y91.035 E49.32929
G1 X91.035 Y99.506 E49.77345
G1 X91.035 Y99.085 E49.78903
G1 X99.086 Y91.035 E50.21114
G1 X98.665 Y91.035 E50.22673
G1 X91.035 Y98.665 E50.62679
G1 X91.035 Y98.245 E50.64238
G1 X98.245 Y91.035 E51.02040
G1 X97.825 Y91.035 E51.03599
G1 X91.035 Y97.824 E51.39197
G1 X91.035 Y97.404 E51.40756
G1 X97.404 Y91.035 E51.74150
G1 X96.984 Y91.035 E51.75708
G1 X91.035 Y96.983 E52.06898
G1 X91.035 Y96.563 E52.08457
G1 X96.563 Y91.035 E52.37442
G1 X96.143 Y91.035 E52.39001
G1 X91.035 Y96.143 E52.65782
G1 X91.035 Y95.722 E52.67340
G1 X95.723 Y91.035 E52.91917
G1 X95.302 Y91.035 E52.93476
G1 X91.035 Y95.302 E53.15848
G1 X91.035 Y94.881 E53.17407
G1 X94.882 Y91.035 E53.37575
G1 X94.462 Y91.035 E53.39134
G1 X91.035 Y94.461 E53.57098
G1 X91.035 Y94.041 E53.58656
G1 X94.041 Y91.035 E53.74416
G1 X93.621 Y91.035 E53.75975
G1 X91.035 Y93.620 E53.89530
G1 X91.035 Y93.200 E53.91089
G1 X93.200 Y91.035 E54.02440
G1 X92.780 Y91.035 E54.03998
G1 X91.035 Y92.779 E54.13145
G1 X91.035 Y92.359 E54.14704
G1 X92.360 Y91.035 E54.21647
G1 X91.939 Y91.035 E54.23205
G1 X91.035 Y91.939 E54.27944
G1 X91.035 Y91.518 E54.29502
G1 X91.519 Y91.035 E54.32036
G1 X91.098 Y91.035 E54.33595
G1 X91.036 Y91.098 E54.33924
G1 F4800
G1 X91.098 Y91.035 E54.26552
G1 F4800
G1 X91.519 Y91.035 E53.91607
G1 F4800
G1 X91.035 Y91.518 E53.34792
G1 F4800
G1 X91.035 Y91.939 E52.99847
G1 F4800
G1 X91.939 Y91.035 E51.93613
G1 F4800
G1 X92.360 Y91.035 E51.58668
G1 F4800
G1 X91.064 Y92.330 E50.06424
G1 E49.83924 F4200.00000
G92 E0
G1 Z0.500 F6000.000
G1 X108.806 Y108.806 F6000.000
G1 E4.50000 F4200.00000
G1 F2700
G1 X91.194 Y108.806 E5.25722
G1 X91.194 Y91.194 E6.01448
G1 X108.806 Y91.194 E6.77170
G1 X108.806 Y108.746 E7.52639
G1 X109.323 Y109.323 F6000.000
G1 F2700
G1 X90.677 Y109.323 E8.32807
G1 X90.677 Y90.677 E9.12980
G1 X109.323 Y90.677 E9.93148
G1 X109.323 Y109.263 E10.73063
G1 X109.780 Y109.780 F6000.000
G1 F1350
G1 X90.220 Y109.780 E11.37645
G1 X90.220 Y90.220 E12.02230
G1 X109.780 Y90.220 E12.66812
G1 X109.780 Y109.720 E13.31199
G1 X109.394 Y109.677 F6000.000
G1 X108.344 Y91.766 F6000.000
G1 F2700
G1 X108.234 Y91.656 E13.31872
G1 X107.497 Y91.656 E13.35064
G1 X108.344 Y92.502 E13.40251
G1 X108.344 Y93.239 E13.43443
G1 X106.760 Y91.656 E13.53143
G1 X106.023 Y91.656 E13.56335
G1 X108.344 Y93.976 E13.70550
G1 X108.344 Y94.713 E13.73742
G1 X105.287 Y91.656 E13.92471
G1 X104.550 Y91.656 E13.95662
G1 X108.344 Y95.450 E14.18905
G1 X108.344 Y96.186 E14.22097
G1 X103.813 Y91.656 E14.49854
G1 X103.076 Y91.656 E14.53045
G1 X108.344 Y96.923 E14.85316
G1 X108.344 Y97.660 E14.88508
G1 X102.339 Y91.656 E15.25292
G1 X101.603 Y91.656 E15.28484
G1 X108.344 Y98.397 E15.69783
G1 X108.344 Y99.134 E15.72975
G1 X100.866 Y91.656 E16.18787
G1 X100.129 Y91.656 E16.21979
G1 X108.344 Y99.870 E16.72305
G1 X108.344 Y100.607 E16.75497
G1 X99.392 Y91.656 E17.30338
G1 X98.655 Y91.656 E17.33530
G1 X108.344 Y101.344 E17.92884
G1 X108.344 Y102.081 E17.96076
G1 X97.919 Y91.656 E18.59944
G1 X97.182 Y91.656 E18.63136
G1 X108.344 Y102.818 E19.31518
G1 X108.344 Y103.554 E19.34710
G1 X96.445 Y91.656 E20.07606
G1 X95.708 Y91.656 E20.10798
G1 X108.344 Y104.291 E20.88208
G1 X108.344 Y105.028 E20.91400
G1 X94.971 Y91.656 E21.73324
G1 X94.235 Y91.656 E21.76516
G1 X108.344 Y105.765 E22.62954
G1 X108.344 Y106.502 E22.66146
G1 X93.498 Y91.656 E23.57098
G1 X92.761 Y91.656 E23.60290
G1 X108.344 Y107.238 E24.55756
G1 X108.344 Y107.975 E24.58948
G1 X92.024 Y91.656 E25.58928
G1 X91.656 Y91.656 E25.60522
G1 X91.656 Y92.025 E25.62120
G1 X107.976 Y108.344 E26.62100
G1 X107.239 Y108.344 E26.65292
G1 X91.656 Y92.762 E27.60759
G1 X91.656 Y93.498 E27.63950
G1 X106.502 Y108.344 E28.54903
G1 X105.765 Y108.344 E28.58095
G1 X91.656 Y94.235 E29.44533
G1 X91.656 Y94.972 E29.47725
G1 X105.029 Y108.344 E30.29650
G1 X104.292 Y108.344 E30.32841
G1 X91.656 Y95.709 E31.10252
G1 X91.656 Y96.446 E31.13444
G1 X103.555 Y108.344 E31.86341
G1 X102.818 Y108.344 E31.89532
G1 X91.656 Y97.182 E32.57915
G1 X91.656 Y97.919 E32.61107
G1 X102.081 Y108.344 E33.24976
G1 X101.345 Y108.344 E33.28167
G1 X91.656 Y98.656 E33.87522
G1 X91.656 Y99.393 E33.90714
G1 X100.608 Y108.344 E34.45555
G1 X99.871 Y108.344 E34.48747
G1 X91.656 Y100.129 E34.99073
G1 X91.656 Y100.866 E35.02265
G1 X99.134 Y108.344 E35.48078
G1 X98.397 Y108.344 E35.51270
G1 X91.656 Y101.603 E35.92569
G1 X91.656 Y102.340 E35.95761
G1 X97.661 Y108.344 E36.32546
G1 X96.924 Y108.344 E36.35738
G1 X91.656 Y103.077 E36.68009
G1 X91.656 Y103.813 E36.71200
G1 X96.187 Y108.344 E36.98957
G1 X95.450 Y108.344 E37.02149
G1 X91.656 Y104.550 E37.25392
G1 X91.656 Y105.287 E37.28584
G1 X94.713 Y108.344 E37.47313
G1 X93.977 Y108.344 E37.50505
G1 X91.656 Y106.024 E37.64720
G1 X91.656 Y106.761 E37.67912
G1 X93.240 Y108.344 E37.77613
G1 X92.503 Y108.344 E37.80805
G1 X91.656 Y107.497 E37.85992
G1 X91.656 Y108.234 E37.89184
G1 X91.766 Y108.344 E37.89856
G1 F4800
G1 X91.656 Y108.234 E37.76962
G1 F4800
G1 X91.656 Y107.497 E37.15716
G1 F4800
G1 X92.503 Y108.344 E36.16182
G1 F4800
G1 X93.240 Y108.344 E35.54936
G1 F4800
G1 X91.656 Y106.761 E33.68787
G1 F4800
G1 X91.656 Y106.683 E33.62356
G1 E33.39856 F4200.00000
G92 E0
G1 Z0.700 F6000.000
G1 X108.806 Y108.806 F6000.000
G1 E4.50000 F4200.00000
G1 F2700
G1 X91.194 Y108.806 E5.25722
G1 X91.194 Y91.194 E6.01448
G1 X108.806 Y91.194 E6.77170
G1 X108.806 Y108.746 E7.52639
G1 X109.323 Y109.323 F6000.000
G1 F2700
G1 X90.677 Y109.323 E8.32807
G1 X90.677 Y90.677 E9.12980
G1 X109.323 Y90.677 E9.93148
G1 X109.323 Y109.263 E10.73063
G1 X109.780 Y109.780 F6000.000
G1 F1350
G1 X90.220 Y109.780 E11.37645
G1 X90.220 Y90.220 E12.02230
G1 X109.780 Y90.220 E12.66812
G1 X109.780 Y109.720 E13.31199
G1 X109.394 Y109.677 F6000.000
G1 X108.234 Y108.344 F6000.000
G1 F2700
G1 X108.344 Y108.234 E13.31872
G1 X108.344 Y107.498 E13.35064
G1 X107.497 Y108.344 E13.40251
G1 X106.760 Y108.344 E13.43443
G1 X108.344 Y106.761 E13.53143
G1 X108.344 Y106.024 E13.56335
G1 X106.023 Y108.344 E13.70550
G1 X105.287 Y108.344 E13.73742
G1 X108.344 Y105.287 E13.92470
G1 X108.344 Y104.550 E13.95662
G1 X104.550 Y108.344 E14.18905
G1 X103.813 Y108.344 E14.22097
G1 X108.344 Y103.814 E14.49853
G1 X108.344 Y103.077 E14.53045
G1 X103.076 Y108.344 E14.85316
G1 X102.339 Y108.344 E14.88508
G1 X108.344 Y102.340 E15.25292
G1 X108.344 Y101.603 E15.28484
G1 X101.603 Y108.344 E15.69783
G1 X100.866 Y108.344 E15.72975
G1 X108.344 Y100.866 E16.18787
G1 X108.344 Y100.130 E16.21979
G1 X100.129 Y108.344 E16.72305
G1 X99.392 Y108.344 E16.75497
G1 X108.344 Y99.393 E17.30338
G1 X108.344 Y98.656 E17.33529
G1 X98.655 Y108.344 E17.92884
G1 X97.919 Y108.344 E17.96076
G1 X108.344 Y97.919 E18.59944
G1 X108.344 Y97.182 E18.63136
G1 X97.182 Y108.344 E19.31518
G1 X96.445 Y108.344 E19.34710
G1 X108.344 Y96.446 E20.07606
G1 X108.344 Y95.709 E20.10798
G1 X95.708 Y108.344 E20.88208
G1 X94.971 Y108.344 E20.91400
G1 X108.344 Y94.972 E21.73324
G1 X108.344 Y94.235 E21.76516
G1 X94.235 Y108.344 E22.62954
G1 X93.498 Y108.344 E22.66146
G1 X108.344 Y93.498 E23.57098
G1 X108.344 Y92.762 E23.60290
G1 X92.761 Y108.344 E24.55756
G1 X92.024 Y108.344 E24.58948
