; generated by Slic3r 1.3.0-dev on 2018-03-18 at 17:40:07

; external perimeters extrusion width = 0.44mm (1.79mm^3/s)
; perimeters extrusion width = 0.56mm (4.65mm^3/s)
; infill extrusion width = 0.50mm (4.11mm^3/s)
; solid infill extrusion width = 0.56mm (4.65mm^3/s)
; top infill extrusion width = 0.56mm (1.55mm^3/s)

M190 S60 ; set bed temperature and wait for it to be reached
M104 S208 ; set temperature
G28 ; home all axes


; Filament gcode

M109 S208 ; set temperature and wait for it to be reached
G21 ; set units to millimeters
G90 ; use absolute coordinates
M82 ; use absolute distances for extrusion
G92 E0
M106 S255
G1 E-4.50000 F4200.00000
G92 E0
G1 Z0.300 F6000.000
G1 X63.109 Y73.666 F6000.000
G1 E4.50000 F4200.00000
G1 F1200
G1 X63.821 Y73.114 E4.53322
G1 X64.055 Y72.956 E4.54363
G1 X64.849 Y72.494 E4.57750
G1 X65.694 Y72.109 E4.61174
G1 X65.934 Y72.017 E4.62122
G1 X67.048 Y71.695 E4.66399
G1 X67.318 Y71.641 E4.67414
G1 X68.217 Y71.522 E4.70758
G1 X68.492 Y71.504 E4.71773
G1 X68.943 Y71.489 E4.73437
G1 X127.417 Y71.489 E6.89038
G1 X128.133 Y71.520 E6.91679
G1 X128.980 Y71.625 E6.94827
G1 X129.268 Y71.679 E6.95908
G1 X130.163 Y71.910 E6.99314
G1 X130.885 Y72.166 E7.02138
G1 X135.769 Y74.164 E7.21595
G1 X137.751 Y75.404 E7.30218
G1 X139.205 Y77.236 E7.38841
G1 X140.048 Y80.538 E7.51406
G1 X140.048 Y119.460 E8.94916
G1 X139.651 Y121.765 E9.03539
G1 X138.505 Y123.804 E9.12162
G1 X135.769 Y125.834 E9.24727
G1 X130.885 Y127.832 E9.44183
G1 X130.441 Y127.996 E9.45928
G1 X130.163 Y128.088 E9.47007
G1 X129.268 Y128.319 E9.50415
G1 X128.980 Y128.373 E9.51495
G1 X128.179 Y128.475 E9.54474
G1 X127.885 Y128.495 E9.55560
G1 X127.417 Y128.511 E9.57285
G1 X68.943 Y128.511 E11.72886
G1 X68.168 Y128.473 E11.75749
G1 X67.319 Y128.357 E11.78908
G1 X67.049 Y128.303 E11.79923
G1 X66.117 Y128.048 E11.83484
G1 X65.855 Y127.956 E11.84508
G1 X65.057 Y127.618 E11.87704
G1 X64.809 Y127.494 E11.88726
G1 X63.967 Y126.995 E11.92337
G1 X63.738 Y126.837 E11.93361
G1 X63.046 Y126.288 E11.96620
G1 X62.840 Y126.102 E11.97643
G1 X62.209 Y125.452 E12.00982
G1 X62.027 Y125.238 E12.02018
G1 X61.520 Y124.562 E12.05132
G1 X61.366 Y124.328 E12.06165
G1 X60.892 Y123.484 E12.09735
G1 X60.470 Y122.480 E12.13748
G1 X60.380 Y122.212 E12.14790
G1 X60.141 Y121.295 E12.18286
G1 X60.089 Y121.019 E12.19321
G1 X59.984 Y120.180 E12.22441
G1 X59.952 Y119.460 E12.25097
G1 X59.952 Y80.538 E13.68607
G1 X59.984 Y79.816 E13.71270
G1 X60.096 Y78.943 E13.74518
G1 X60.151 Y78.664 E13.75565
G1 X60.382 Y77.786 E13.78914
G1 X60.472 Y77.518 E13.79957
G1 X60.812 Y76.689 E13.83260
G1 X60.936 Y76.435 E13.84303
G1 X61.380 Y75.658 E13.87599
G1 X61.536 Y75.422 E13.88642
G1 X62.080 Y74.706 E13.91960
G1 X62.264 Y74.494 E13.92995
G1 X63.064 Y73.706 E13.97134
G1 X63.305 Y73.888 F6000.000
G1 F1200
G1 X63.986 Y73.359 E14.00313
G1 X64.220 Y73.201 E14.01355
G1 X64.980 Y72.759 E14.04596
G1 X65.800 Y72.385 E14.07917
G1 X66.040 Y72.293 E14.08865
G1 X67.106 Y71.985 E14.12959
G1 X67.376 Y71.931 E14.13974
G1 X68.237 Y71.817 E14.17174
G1 X68.511 Y71.799 E14.18189
G1 X68.943 Y71.785 E14.19781
G1 X127.417 Y71.785 E16.35382
G1 X128.115 Y71.815 E16.37957
G1 X128.925 Y71.916 E16.40969
G1 X129.214 Y71.970 E16.42051
G1 X130.070 Y72.190 E16.45310
G1 X130.773 Y72.439 E16.48060
G1 X135.657 Y74.438 E16.67517
G1 X137.591 Y75.658 E16.75951
G1 X138.993 Y77.466 E16.84386
G1 X139.752 Y80.538 E16.96053
G1 X139.752 Y119.460 E18.39564
G1 X139.355 Y121.713 E18.47998
G1 X138.212 Y123.694 E18.56433
G1 X135.657 Y125.561 E18.68100
G1 X130.773 Y127.559 E18.87557
G1 X130.348 Y127.715 E18.89226
G1 X130.070 Y127.807 E18.90306
G1 X129.214 Y128.028 E18.93567
G1 X128.158 Y128.180 E18.97497
G1 X127.864 Y128.200 E18.98584
G1 X127.417 Y128.215 E19.00234
G1 X68.943 Y128.215 E21.15836
G1 X68.189 Y128.178 E21.18619
G1 X67.377 Y128.067 E21.21642
G1 X67.107 Y128.013 E21.22658
G1 X66.215 Y127.769 E21.26065
G1 X65.953 Y127.677 E21.27089
G1 X65.189 Y127.353 E21.30148
G1 X64.941 Y127.229 E21.31170
G1 X64.135 Y126.752 E21.34626
G1 X63.907 Y126.594 E21.35650
G1 X63.244 Y126.068 E21.38769
G1 X63.038 Y125.882 E21.39792
G1 X62.434 Y125.260 E21.42988
G1 X62.252 Y125.046 E21.44024
G1 X61.767 Y124.400 E21.47004
G1 X61.613 Y124.166 E21.48037
G1 X61.159 Y123.358 E21.51454
G1 X60.751 Y122.386 E21.55339
G1 X60.661 Y122.118 E21.56382
G1 X60.432 Y121.240 E21.59727
G1 X60.380 Y120.964 E21.60762
G1 X60.279 Y120.161 E21.63748
G1 X60.248 Y119.460 E21.66335
G1 X60.248 Y80.538 E23.09845
G1 X60.279 Y79.835 E23.12439
G1 X60.387 Y78.999 E23.15547
G1 X60.441 Y78.720 E23.16594
G1 X60.663 Y77.880 E23.19799
G1 X60.753 Y77.612 E23.20842
G1 X61.078 Y76.818 E23.24004
G1 X61.202 Y76.564 E23.25047
G1 X61.626 Y75.821 E23.28201
G1 X61.782 Y75.585 E23.29244
G1 X62.303 Y74.900 E23.32419
G1 X62.487 Y74.687 E23.33455
G1 X63.260 Y73.928 E23.37451
G1 X63.501 Y74.109 F6000.000
G1 F1200
G1 X64.152 Y73.604 E23.40488
G1 X64.386 Y73.446 E23.41529
G1 X65.112 Y73.024 E23.44625
G1 X65.362 Y72.900 E23.45655
G1 X66.146 Y72.569 E23.48791
G1 X67.164 Y72.275 E23.52701
G1 X67.434 Y72.221 E23.53716
G1 X68.256 Y72.112 E23.56773
G1 X68.943 Y72.080 E23.59308
G1 X127.417 Y72.080 E25.74909
G1 X128.096 Y72.110 E25.77417
G1 X128.871 Y72.206 E25.80294
G1 X129.159 Y72.260 E25.81376
G1 X129.977 Y72.471 E25.84489
G1 X130.661 Y72.713 E25.87164
G1 X135.545 Y74.711 E26.06621
G1 X137.430 Y75.911 E26.14862
G1 X138.778 Y77.695 E26.23104
G1 X139.457 Y80.538 E26.33882
G1 X139.457 Y119.460 E27.77393
G1 X139.060 Y121.660 E27.85634
G1 X137.919 Y123.582 E27.93876
G1 X135.545 Y125.287 E28.04654
G1 X130.661 Y127.285 E28.24111
G1 X130.255 Y127.435 E28.25705
G1 X129.977 Y127.527 E28.26785
G1 X129.159 Y127.738 E28.29900
G1 X128.138 Y127.885 E28.33702
G1 X127.844 Y127.905 E28.34789
G1 X127.417 Y127.920 E28.36365
G1 X68.943 Y127.920 E30.51966
G1 X68.211 Y127.883 E30.54670
G1 X67.434 Y127.777 E30.57558
G1 X67.164 Y127.723 E30.58573
G1 X66.313 Y127.490 E30.61828
G1 X66.051 Y127.398 E30.62852
G1 X65.322 Y127.089 E30.65774
G1 X65.074 Y126.965 E30.66796
G1 X64.303 Y126.509 E30.70097
G1 X64.075 Y126.351 E30.71120
G1 X63.442 Y125.849 E30.74100
G1 X63.236 Y125.663 E30.75123
G1 X62.659 Y125.069 E30.78176
G1 X62.477 Y124.855 E30.79211
G1 X62.014 Y124.237 E30.82058
G1 X61.860 Y124.003 E30.83091
G1 X61.427 Y123.231 E30.86354
G1 X61.031 Y122.292 E30.90112
G1 X60.941 Y122.024 E30.91154
G1 X60.722 Y121.186 E30.94350
G1 X60.670 Y120.910 E30.95385
G1 X60.574 Y120.142 E30.98237
G1 X60.543 Y119.460 E31.00755
G1 X60.543 Y80.538 E32.44265
G1 X60.574 Y79.854 E32.46789
G1 X60.677 Y79.056 E32.49758
G1 X60.731 Y78.777 E32.50805
G1 X60.943 Y77.974 E32.53866
G1 X61.033 Y77.706 E32.54909
G1 X61.344 Y76.948 E32.57929
G1 X61.468 Y76.694 E32.58972
G1 X61.873 Y75.984 E32.61985
G1 X62.029 Y75.748 E32.63028
G1 X62.526 Y75.093 E32.66061
G1 X62.711 Y74.881 E32.67096
G1 X63.456 Y74.149 E32.70949
G1 F4800
G1 X64.152 Y73.604 E31.97507
G1 F4800
G1 X64.386 Y73.446 E31.74037
G1 F4800
G1 X65.112 Y73.024 E31.04228
G1 F4800
G1 X65.352 Y72.905 E30.81955
G1 F4800
G1 X65.352 Y72.905 E30.81937
G1 F4800
G1 X65.362 Y72.900 E30.81013
G1 F4800
G1 X65.906 Y72.661 E30.31657
G1 F4800
G1 X66.146 Y72.569 E30.10291
G1 F4800
G1 X67.164 Y72.275 E29.22142
G1 F4800
G1 X67.434 Y72.221 E28.99254
G1 F4800
G1 X68.100 Y72.133 E28.43449
G1 E28.20949 F4200.00000
G92 E0
G1 X67.085 Y78.156 F6000.000
G1 E4.50000 F4200.00000
G1 F1200
G1 X67.487 Y77.880 E4.52027
G1 X67.783 Y77.734 E4.53398
G1 X68.116 Y77.604 E4.54884
G1 X68.524 Y77.515 E4.56622
G1 X68.927 Y77.487 E4.58299
G1 X127.431 Y77.487 E7.01530
G1 X127.848 Y77.515 E7.03269
G1 X128.250 Y77.594 E7.04974
G1 X128.582 Y77.704 E7.06428
G1 X128.946 Y77.873 E7.08096
G1 X129.289 Y78.090 E7.09785
G1 X129.641 Y78.386 E7.11696
G1 X129.915 Y78.691 E7.13399
G1 X130.140 Y79.025 E7.15075
G1 X130.296 Y79.332 E7.16505
G1 X130.389 Y79.584 E7.17624
G1 X130.480 Y79.649 E7.18087
G1 X133.529 Y79.649 E7.30764
G1 X134.050 Y80.170 E7.33827
G1 X134.050 Y119.828 E8.98709
G1 X133.529 Y120.349 E9.01772
G1 X130.480 Y120.349 E9.14449
G1 X130.389 Y120.414 E9.14913
G1 X130.296 Y120.666 E9.16031
G1 X130.139 Y120.973 E9.17465
G1 X129.914 Y121.306 E9.19137
G1 X129.644 Y121.610 E9.20827
G1 X129.289 Y121.908 E9.22751
G1 X128.946 Y122.125 E9.24440
G1 X128.582 Y122.294 E9.26107
G1 X128.250 Y122.404 E9.27562
G1 X127.849 Y122.483 E9.29260
G1 X127.432 Y122.513 E9.30999
G1 X68.927 Y122.513 E11.74236
G1 X68.522 Y122.482 E11.75925
G1 X68.134 Y122.399 E11.77574
G1 X67.764 Y122.266 E11.79208
G1 X67.408 Y122.083 E11.80871
G1 X67.086 Y121.855 E11.82512
G1 X66.796 Y121.588 E11.84149
G1 X66.545 Y121.288 E11.85779
G1 X66.328 Y120.950 E11.87447
G1 X66.164 Y120.596 E11.89070
G1 X66.041 Y120.215 E11.90735
G1 X65.971 Y119.828 E11.92371
G1 X65.950 Y119.474 E11.93844
G1 X65.950 Y80.524 E13.55780
G1 X65.971 Y80.171 E13.57250
G1 X66.044 Y79.779 E13.58905
G1 X66.189 Y79.346 E13.60806
G1 X66.367 Y78.990 E13.62462
G1 X66.555 Y78.705 E13.63879
G1 X66.812 Y78.403 E13.65530
G1 X67.040 Y78.196 E13.66810
G1 X67.306 Y78.406 F6000.000
G1 F1200
G1 X67.645 Y78.174 E13.68517
G1 X67.924 Y78.036 E13.69809
G1 X68.222 Y77.920 E13.71138
G1 X68.578 Y77.845 E13.72654
G1 X68.933 Y77.820 E13.74131
G1 X127.426 Y77.820 E16.17315
G1 X127.762 Y77.840 E16.18718
G1 X128.120 Y77.905 E16.20229
G1 X128.468 Y78.017 E16.21749
G1 X128.826 Y78.187 E16.23396
G1 X129.127 Y78.385 E16.24894
G1 X129.403 Y78.619 E16.26398
G1 X129.646 Y78.889 E16.27911
G1 X129.830 Y79.156 E16.29256
G1 X129.995 Y79.473 E16.30744
G1 X130.137 Y79.904 E16.32628
G1 X130.234 Y79.982 E16.33145
G1 X133.391 Y79.982 E16.46272
G1 X133.717 Y80.308 E16.48187
G1 X133.717 Y119.690 E18.11921
G1 X133.391 Y120.016 E18.13836
G1 X130.234 Y120.016 E18.26963
G1 X130.138 Y120.094 E18.27479
G1 X129.995 Y120.525 E18.29364
G1 X129.848 Y120.812 E18.30705
G1 X129.646 Y121.107 E18.32193
G1 X129.404 Y121.378 E18.33700
G1 X129.127 Y121.613 E18.35213
G1 X128.826 Y121.811 E18.36711
G1 X128.468 Y121.981 E18.38357
G1 X128.120 Y122.093 E18.39878
G1 X127.765 Y122.158 E18.41377
G1 X127.426 Y122.180 E18.42788
G1 X68.933 Y122.180 E20.85976
G1 X68.577 Y122.153 E20.87460
G1 X68.233 Y122.081 E20.88920
G1 X67.904 Y121.963 E20.90374
G1 X67.589 Y121.802 E20.91846
G1 X67.302 Y121.601 E20.93304
G1 X67.043 Y121.364 E20.94760
G1 X66.818 Y121.096 E20.96217
G1 X66.625 Y120.797 E20.97696
G1 X66.477 Y120.480 E20.99149
G1 X66.366 Y120.142 E21.00631
G1 X66.303 Y119.796 E21.02091
G1 X66.283 Y119.469 E21.03455
G1 X66.283 Y80.529 E22.65347
G1 X66.303 Y80.203 E22.66707
G1 X66.369 Y79.854 E22.68182
G1 X66.493 Y79.482 E22.69812
G1 X66.651 Y79.164 E22.71287
G1 X66.827 Y78.898 E22.72614
G1 X67.057 Y78.630 E22.74084
G1 X67.261 Y78.446 E22.75227
G1 F4800
G1 X67.320 Y78.394 E22.68722
G1 F4800
G1 X67.349 Y78.371 E22.65695
G1 F4800
G1 X67.373 Y78.355 E22.63247
G1 F4800
G1 X67.373 Y78.355 E22.63247
G1 F4800
G1 X67.613 Y78.193 E22.39169
G1 F4800
G1 X67.645 Y78.174 E22.36082
G1 F4800
G1 X67.902 Y78.047 E22.12265
G1 F4800
G1 X67.902 Y78.047 E22.12264
G1 F4800
G1 X67.924 Y78.036 E22.10250
G1 F4800
G1 X67.948 Y78.025 E22.08069
G1 F4800
G1 X67.970 Y78.017 E22.06128
G1 F4800
G1 X67.970 Y78.017 E22.06128
G1 F4800
G1 X68.222 Y77.920 E21.83663
G1 F4800
G1 X68.267 Y77.907 E21.79763
G1 F4800
G1 X68.328 Y77.895 E21.74619
G1 F4800
G1 X68.362 Y77.892 E21.71754
G1 F4800
G1 X68.372 Y77.890 E21.70887
G1 F4800
G1 X68.578 Y77.845 E21.53332
G1 F4800
G1 X68.639 Y77.838 E21.48293
G1 F4800
G1 X68.674 Y77.838 E21.45351
G1 F4800
G1 X68.681 Y77.838 E21.44815
G1 F4800
G1 X68.901 Y77.821 E21.26407
G1 F4800
G1 X68.902 Y77.821 E21.26340
G1 F4800
G1 X68.905 Y77.821 E21.26073
G1 F4800
G1 X68.912 Y77.821 E21.25495
G1 F4800
G1 X68.933 Y77.820 E21.23795
G1 F4800
G1 X72.254 Y77.820 E18.47727
G1 E18.25227 F4200.00000
G92 E0
G1 X129.963 Y119.683 F6000.000
G1 E4.50000 F4200.00000
G1 F1200
G1 X129.867 Y119.761 E4.50516
G1 X129.798 Y120.087 E4.51902
G1 X129.693 Y120.383 E4.53207
G1 X129.556 Y120.650 E4.54455
G1 X129.369 Y120.920 E4.55821
G1 X129.154 Y121.156 E4.57147
G1 X128.910 Y121.359 E4.58468
G1 X128.654 Y121.525 E4.59736
G1 X128.353 Y121.667 E4.61118
G1 X128.047 Y121.768 E4.62457
G1 X127.733 Y121.826 E4.63788
G1 X127.421 Y121.847 E4.65087
G1 X68.939 Y121.847 E7.08226
G1 X68.632 Y121.824 E7.09506
G1 X68.333 Y121.763 E7.10777
G1 X68.044 Y121.660 E7.12051
G1 X67.769 Y121.522 E7.13331
G1 X67.517 Y121.346 E7.14607
G1 X67.290 Y121.140 E7.15882
G1 X67.091 Y120.904 E7.17165
G1 X66.921 Y120.644 E7.18456
G1 X66.790 Y120.365 E7.19738
G1 X66.692 Y120.069 E7.21036
G1 X66.635 Y119.765 E7.22321
G1 X66.616 Y119.464 E7.23576
G1 X66.616 Y80.534 E8.85425
G1 X66.637 Y80.221 E8.86733
G1 X66.698 Y79.914 E8.88031
G1 X66.798 Y79.619 E8.89328
G1 X66.935 Y79.339 E8.90623
G1 X67.108 Y79.080 E8.91920
G1 X67.312 Y78.846 E8.93208
G1 X67.544 Y78.642 E8.94496
G1 X67.791 Y78.475 E8.95731
G1 X68.065 Y78.338 E8.97006
G1 X68.346 Y78.231 E8.98257
G1 X68.633 Y78.174 E8.99472
G1 X68.939 Y78.153 E9.00748
G1 X127.420 Y78.153 E11.43886
G1 X127.732 Y78.172 E11.45182
G1 X128.047 Y78.230 E11.46517
G1 X128.353 Y78.331 E11.47856
G1 X128.654 Y78.473 E11.49238
G1 X128.910 Y78.639 E11.50506
G1 X129.154 Y78.842 E11.51826
G1 X129.369 Y79.075 E11.53144
G1 X129.556 Y79.348 E11.54520
G1 X129.693 Y79.615 E11.55768
G1 X129.798 Y79.911 E11.57073
G1 X129.867 Y80.237 E11.58457
G1 X129.963 Y80.315 E11.58974
G1 X133.253 Y80.315 E11.72653
G1 X133.384 Y80.446 E11.73421
G1 X133.384 Y119.552 E13.36006
G1 X133.253 Y119.683 E13.36774
G1 X130.023 Y119.683 E13.50202
G1 X129.492 Y119.280 F6000.000
G1 F1200
G1 X129.464 Y119.720 E13.51826
G1 X129.411 Y119.971 E13.52775
G1 X129.325 Y120.217 E13.53734
G1 X129.206 Y120.449 E13.54697
G1 X129.058 Y120.664 E13.55658
G1 X128.880 Y120.860 E13.56634
G1 X128.676 Y121.031 E13.57616
G1 X128.451 Y121.176 E13.58603
G1 X128.210 Y121.291 E13.59587
G1 X127.954 Y121.375 E13.60581
G1 X127.688 Y121.425 E13.61578
G1 X127.411 Y121.444 E13.62603
G1 X68.950 Y121.444 E15.78157
G1 X68.693 Y121.425 E15.79105
G1 X68.447 Y121.376 E15.80032
G1 X68.207 Y121.292 E15.80967
G1 X67.981 Y121.179 E15.81901
G1 X67.773 Y121.035 E15.82833
G1 X67.584 Y120.864 E15.83770
G1 X67.417 Y120.668 E15.84722
G1 X67.276 Y120.454 E15.85667
G1 X67.166 Y120.221 E15.86617
G1 X67.084 Y119.974 E15.87575
G1 X67.036 Y119.722 E15.88524
G1 X67.019 Y119.454 E15.89511
G1 X67.019 Y80.544 E17.32979
G1 X67.036 Y80.279 E17.33957
G1 X67.085 Y80.024 E17.34915
G1 X67.168 Y79.778 E17.35870
G1 X67.282 Y79.545 E17.36826
G1 X67.425 Y79.329 E17.37783
G1 X67.593 Y79.135 E17.38730
G1 X67.786 Y78.965 E17.39678
G1 X68.000 Y78.820 E17.40631
G1 X68.449 Y78.622 E17.42442
G1 X68.693 Y78.573 E17.43358
G1 X68.949 Y78.556 E17.44305
G1 X127.411 Y78.556 E19.59864
G1 X127.678 Y78.572 E19.60847
G1 X127.954 Y78.623 E19.61884
G1 X128.210 Y78.707 E19.62877
G1 X128.451 Y78.822 E19.63861
G1 X128.676 Y78.967 E19.64848
G1 X128.880 Y79.138 E19.65831
G1 X129.058 Y79.332 E19.66800
G1 X129.206 Y79.548 E19.67766
G1 X129.325 Y79.781 E19.68731
G1 X129.411 Y80.026 E19.69689
G1 X129.464 Y80.280 E19.70645
G1 X129.492 Y80.718 E19.72263
G1 X132.981 Y80.718 E19.85127
G1 X132.981 Y119.280 E21.27310
G1 X129.552 Y119.280 E21.39953
G1 X129.132 Y119.454 F6000.000
G1 X129.215 Y118.984 F6000.000
G1 F1200
G1 X129.171 Y119.680 E21.42522
G1 X129.126 Y119.892 E21.43321
G1 X129.053 Y120.100 E21.44134
G1 X128.952 Y120.297 E21.44951
G1 X128.826 Y120.480 E21.45769
G1 X128.675 Y120.646 E21.46599
G1 X128.500 Y120.793 E21.47439
G1 X128.307 Y120.918 E21.48286
G1 X128.100 Y121.016 E21.49131
G1 X127.880 Y121.088 E21.49985
G1 X127.651 Y121.131 E21.50845
G1 X127.401 Y121.148 E21.51769
G1 X68.960 Y121.148 E23.67246
