; generated by Slic3r 1.3.0-dev on 2018-03-18 at 19:50:30

; external perimeters extrusion width = 0.44mm (1.79mm^3/s)
; perimeters extrusion width = 0.56mm (4.65mm^3/s)
; infill extrusion width = 0.50mm (4.11mm^3/s)
; solid infill extrusion width = 0.56mm (4.65mm^3/s)
; top infill extrusion width = 0.56mm (1.55mm^3/s)

M190 S60 ; set bed temperature and wait for it to be reached
M104 S208 ; set temperature
G28 ; home all axes


; Filament gcode

M109 S208 ; set temperature and wait for it to be reached
G21 ; set units to millimeters
G90 ; use absolute coordinates
M82 ; use absolute distances for extrusion
G92 E0
M106 S255
G1 E-4.50000 F4200.00000
G92 E0
G1 Z0.300 F6000.000
G1 X66.872 Y57.011 F6000.000
G1 E4.50000 F4200.00000
G1 F1200
G1 X67.515 Y56.269 E4.53623
G1 X69.533 Y54.251 E4.64145
G1 X70.276 Y53.608 E4.67767
G1 X72.537 Y51.915 E4.78184
G1 X73.387 Y51.366 E4.81912
G1 X75.891 Y49.999 E4.92433
G1 X76.785 Y49.590 E4.96056
G1 X79.432 Y48.603 E5.06472
G1 X80.401 Y48.316 E5.10200
G1 X83.190 Y47.710 E5.20722
G1 X84.162 Y47.570 E5.24345
G1 X87.009 Y47.366 E5.34867
G1 X87.500 Y47.349 E5.36679
G1 X112.500 Y47.349 E6.28857
G1 X112.991 Y47.366 E6.30670
G1 X115.838 Y47.570 E6.41191
G1 X116.810 Y47.710 E6.44814
G1 X119.599 Y48.316 E6.55336
G1 X120.541 Y48.593 E6.58959
G1 X123.188 Y49.581 E6.69375
G1 X124.109 Y49.999 E6.73103
G1 X126.613 Y51.366 E6.83624
G1 X127.440 Y51.897 E6.87247
G1 X129.724 Y53.608 E6.97769
G1 X130.467 Y54.251 E7.01392
G1 X132.485 Y56.269 E7.11913
G1 X133.128 Y57.011 E7.15536
G1 X134.838 Y59.296 E7.26058
G1 X135.370 Y60.122 E7.29681
G1 X136.737 Y62.627 E7.40202
G1 X137.145 Y63.521 E7.43825
G1 X138.142 Y66.194 E7.54347
G1 X138.419 Y67.137 E7.57969
G1 X139.026 Y69.926 E7.68491
G1 X139.166 Y70.898 E7.72114
G1 X139.369 Y73.744 E7.82636
G1 X139.387 Y74.236 E7.84448
G1 X139.387 Y94.236 E8.58191
G1 X139.367 Y94.759 E8.60123
G1 X139.136 Y97.792 E8.71336
G1 X139.001 Y98.720 E8.74796
G1 X128.914 Y145.476 E10.51157
G1 X128.040 Y147.645 E10.59780
G1 X126.491 Y149.397 E10.68403
G1 X124.382 Y150.550 E10.77262
G1 X119.382 Y152.236 E10.96717
G1 X117.182 Y152.596 E11.04937
G1 X77.818 Y152.596 E12.50081
G1 X75.513 Y152.199 E12.58704
G1 X73.474 Y151.054 E12.67327
G1 X71.936 Y149.292 E12.75950
G1 X71.075 Y147.113 E12.84587
G1 X60.989 Y98.672 E14.67028
G1 X60.864 Y97.792 E14.70306
G1 X60.633 Y94.759 E14.81520
G1 X60.613 Y94.236 E14.83451
G1 X60.613 Y74.236 E15.57193
G1 X60.631 Y73.744 E15.59006
G1 X60.834 Y70.898 E15.69529
G1 X60.974 Y69.926 E15.73150
G1 X61.581 Y67.137 E15.83672
G1 X61.857 Y66.194 E15.87295
G1 X62.855 Y63.521 E15.97816
G1 X63.263 Y62.627 E16.01439
G1 X64.630 Y60.122 E16.11961
G1 X65.162 Y59.296 E16.15584
G1 X66.836 Y57.059 E16.25884
G1 X67.108 Y57.189 F6000.000
G1 F1200
G1 X67.724 Y56.478 E16.29352
G1 X69.742 Y54.460 E16.39874
G1 X70.453 Y53.844 E16.43340
G1 X72.714 Y52.151 E16.53757
G1 X73.528 Y51.626 E16.57329
G1 X76.033 Y50.258 E16.67851
G1 X76.888 Y49.867 E16.71318
G1 X79.535 Y48.880 E16.81735
G1 X80.464 Y48.605 E16.85307
G1 X83.253 Y47.999 E16.95829
G1 X84.183 Y47.865 E16.99296
G1 X87.030 Y47.661 E17.09818
G1 X87.500 Y47.645 E17.11552
G1 X112.500 Y47.645 E18.03730
G1 X112.970 Y47.661 E18.05465
G1 X115.817 Y47.865 E18.15987
G1 X116.747 Y47.999 E18.19454
G1 X119.536 Y48.605 E18.29976
G1 X120.438 Y48.870 E18.33443
G1 X123.112 Y49.867 E18.43965
G1 X123.967 Y50.258 E18.47432
G1 X126.472 Y51.626 E18.57953
G1 X127.263 Y52.134 E18.61421
G1 X129.547 Y53.844 E18.71943
G1 X130.258 Y54.460 E18.75410
G1 X132.256 Y56.458 E18.85826
G1 X132.892 Y57.189 E18.89399
G1 X134.602 Y59.473 E18.99920
G1 X135.110 Y60.264 E19.03388
G1 X136.478 Y62.769 E19.13909
G1 X136.868 Y63.624 E19.17376
G1 X137.866 Y66.298 E19.27898
G1 X138.130 Y67.200 E19.31365
G1 X138.737 Y69.988 E19.41887
G1 X138.871 Y70.919 E19.45354
G1 X139.074 Y73.766 E19.55876
G1 X139.091 Y74.236 E19.57611
G1 X139.091 Y94.236 E20.31353
G1 X139.072 Y94.737 E20.33202
G1 X138.841 Y97.769 E20.44416
G1 X138.712 Y98.658 E20.47727
G1 X128.625 Y145.414 E22.24088
G1 X127.762 Y147.532 E22.32522
G1 X126.227 Y149.228 E22.40957
G1 X124.288 Y150.270 E22.49073
G1 X119.288 Y151.955 E22.68528
G1 X117.182 Y152.301 E22.76395
G1 X77.818 Y152.301 E24.21539
G1 X75.565 Y151.904 E24.29973
G1 X73.583 Y150.761 E24.38408
G1 X72.112 Y149.009 E24.46842
G1 X71.365 Y147.053 E24.54563
G1 X61.278 Y98.612 E26.37003
G1 X61.159 Y97.769 E26.40141
G1 X60.928 Y94.737 E26.51355
G1 X60.909 Y94.236 E26.53203
G1 X60.909 Y74.236 E27.26945
G1 X60.926 Y73.766 E27.28680
G1 X61.129 Y70.919 E27.39203
G1 X61.263 Y69.988 E27.42669
G1 X61.870 Y67.200 E27.53191
G1 X62.134 Y66.298 E27.56658
G1 X63.132 Y63.624 E27.67180
G1 X63.522 Y62.769 E27.70647
G1 X64.890 Y60.264 E27.81169
G1 X65.398 Y59.473 E27.84636
G1 X67.073 Y57.237 E27.94936
G1 X67.345 Y57.366 F6000.000
G1 F1200
G1 X67.933 Y56.687 E27.98248
G1 X69.951 Y54.669 E28.08770
G1 X70.630 Y54.081 E28.12082
G1 X72.892 Y52.388 E28.22498
G1 X73.670 Y51.885 E28.25915
G1 X76.175 Y50.518 E28.36437
G1 X76.992 Y50.144 E28.39748
G1 X79.639 Y49.157 E28.50165
G1 X80.527 Y48.894 E28.53581
G1 X83.316 Y48.288 E28.64104
G1 X84.205 Y48.160 E28.67415
G1 X87.051 Y47.956 E28.77937
G1 X87.500 Y47.940 E28.79593
G1 X112.500 Y47.940 E29.71772
G1 X112.949 Y47.956 E29.73429
G1 X115.795 Y48.160 E29.83950
G1 X116.685 Y48.288 E29.87262
G1 X119.473 Y48.894 E29.97784
G1 X120.335 Y49.147 E30.01096
G1 X123.008 Y50.144 E30.11617
G1 X123.825 Y50.518 E30.14929
G1 X126.330 Y51.885 E30.25450
G1 X127.086 Y52.371 E30.28762
G1 X129.370 Y54.081 E30.39284
G1 X130.049 Y54.669 E30.42596
G1 X132.046 Y56.667 E30.53012
G1 X132.655 Y57.366 E30.56429
G1 X134.365 Y59.650 E30.66951
G1 X134.851 Y60.406 E30.70262
G1 X136.218 Y62.910 E30.80784
G1 X136.591 Y63.727 E30.84096
G1 X137.589 Y66.401 E30.94617
G1 X137.842 Y67.263 E30.97929
G1 X138.448 Y70.051 E31.08451
G1 X138.576 Y70.940 E31.11763
G1 X138.780 Y73.787 E31.22284
G1 X138.796 Y74.236 E31.23941
G1 X138.796 Y94.236 E31.97684
G1 X138.777 Y94.714 E31.99450
G1 X138.546 Y97.747 E32.10663
G1 X138.423 Y98.596 E32.13826
G1 X128.337 Y145.352 E33.90187
G1 X127.485 Y147.418 E33.98428
G1 X125.965 Y149.057 E34.06670
G1 X124.194 Y149.990 E34.14050
G1 X119.194 Y151.675 E34.33505
G1 X117.182 Y152.005 E34.41020
G1 X77.818 Y152.005 E35.86163
G1 X75.618 Y151.608 E35.94405
G1 X73.695 Y150.468 E36.02647
G1 X72.292 Y148.728 E36.10889
G1 X71.654 Y146.993 E36.17704
G1 X61.568 Y98.551 E38.00145
G1 X61.454 Y97.747 E38.03141
G1 X61.223 Y94.714 E38.14355
G1 X61.204 Y94.236 E38.16121
G1 X61.204 Y74.236 E38.89863
G1 X61.220 Y73.787 E38.91520
G1 X61.424 Y70.940 E39.02043
G1 X61.552 Y70.051 E39.05354
G1 X62.158 Y67.263 E39.15875
G1 X62.411 Y66.401 E39.19187
G1 X63.409 Y63.727 E39.29709
G1 X63.782 Y62.910 E39.33021
G1 X65.149 Y60.406 E39.43542
G1 X65.635 Y59.650 E39.46854
G1 X67.309 Y57.414 E39.57154
G1 F4800
G1 X67.933 Y56.687 E38.77514
G1 F4800
G1 X69.931 Y54.689 E36.42683
G1 F4800
G1 X69.931 Y54.689 E36.42671
G1 F4800
G1 X69.951 Y54.669 E36.40299
G1 F4800
G1 X70.630 Y54.081 E35.65646
G1 F4800
G1 X70.977 Y53.821 E35.29654
G1 E35.07154 F4200.00000
G92 E0
G1 X118.174 Y144.913 F6000.000
G1 E4.50000 F4200.00000
G1 F1200
G1 X118.072 Y145.016 E4.50603
G1 X118.072 Y146.078 E4.55018
G1 X117.551 Y146.599 E4.58082
G1 X77.449 Y146.599 E6.24805
G1 X76.928 Y146.078 E6.27868
G1 X76.928 Y112.266 E7.68444
G1 X76.886 Y112.188 E7.68811
G1 X74.729 Y110.767 E7.79553
G1 X72.405 Y108.674 E7.92553
G1 X70.383 Y106.210 E8.05804
G1 X68.736 Y103.416 E8.19290
G1 X67.561 Y100.465 E8.32496
G1 X66.847 Y97.370 E8.45702
G1 X66.611 Y94.253 E8.58698
G1 X66.611 Y74.220 E9.41985
G1 X66.828 Y71.231 E9.54442
G1 X67.466 Y68.320 E9.66833
G1 X68.512 Y65.529 E9.79224
G1 X69.944 Y62.915 E9.91616
G1 X71.734 Y60.532 E10.04007
G1 X73.844 Y58.428 E10.16399
G1 X76.233 Y56.645 E10.28790
G1 X78.851 Y55.221 E10.41181
G1 X81.645 Y54.184 E10.53573
G1 X84.496 Y53.564 E10.65700
G1 X87.452 Y53.348 E10.78026
G1 X112.516 Y53.346 E11.82228
G1 X115.504 Y53.564 E11.94685
G1 X118.416 Y54.202 E12.07076
G1 X121.207 Y55.247 E12.19467
G1 X123.820 Y56.680 E12.31859
G1 X126.156 Y58.428 E12.43987
G1 X128.308 Y60.580 E12.56641
G1 X130.090 Y62.969 E12.69033
G1 X131.515 Y65.587 E12.81424
G1 X132.552 Y68.381 E12.93815
G1 X133.172 Y71.231 E13.05943
G1 X133.388 Y74.188 E13.18268
G1 X133.389 Y94.253 E14.01687
G1 X133.143 Y97.436 E14.14963
G1 X132.419 Y100.529 E14.28169
G1 X131.264 Y103.416 E14.41095
G1 X129.627 Y106.196 E14.54507
G1 X127.572 Y108.695 E14.67960
G1 X125.272 Y110.767 E14.80831
G1 X123.114 Y112.188 E14.91573
G1 X123.072 Y112.266 E14.91941
G1 X123.072 Y144.392 E16.25508
G1 X122.551 Y144.913 E16.28571
G1 X118.234 Y144.913 E16.46517
G1 X117.841 Y144.580 F6000.000
G1 F1200
G1 X117.739 Y144.683 E16.47120
G1 X117.739 Y145.940 E16.52347
G1 X117.413 Y146.266 E16.54262
G1 X77.587 Y146.266 E18.19838
G1 X77.261 Y145.940 E18.21753
G1 X77.261 Y112.086 E19.62502
G1 X77.220 Y112.008 E19.62869
G1 X74.934 Y110.504 E19.74245
G1 X72.634 Y108.432 E19.87112
G1 X70.650 Y106.009 E20.00135
G1 X69.041 Y103.280 E20.13306
G1 X67.883 Y100.377 E20.26301
G1 X67.178 Y97.332 E20.39297
G1 X66.944 Y94.246 E20.52160
G1 X66.944 Y74.226 E21.35396
G1 X67.156 Y71.291 E21.47631
G1 X67.782 Y68.425 E21.59824
G1 X68.810 Y65.678 E21.72018
G1 X70.218 Y63.106 E21.84211
G1 X71.978 Y60.759 E21.96405
G1 X74.054 Y58.688 E22.08599
G1 X76.403 Y56.932 E22.20792
G1 X78.979 Y55.529 E22.32986
G1 X81.728 Y54.507 E22.45179
G1 X84.555 Y53.892 E22.57208
G1 X87.470 Y53.680 E22.69361
G1 X112.510 Y53.680 E23.73464
G1 X115.445 Y53.892 E23.85698
G1 X118.272 Y54.507 E23.97727
G1 X121.021 Y55.529 E24.09921
G1 X123.597 Y56.932 E24.22114
G1 X125.946 Y58.688 E24.34308
G1 X128.048 Y60.789 E24.46666
G1 X129.804 Y63.139 E24.58860
G1 X131.207 Y65.715 E24.71054
G1 X132.229 Y68.464 E24.83247
G1 X132.844 Y71.291 E24.95276
G1 X133.055 Y74.206 E25.07428
G1 X133.056 Y94.246 E25.90746
G1 X132.815 Y97.373 E26.03785
G1 X132.105 Y100.417 E26.16781
G1 X130.959 Y103.280 E26.29600
G1 X129.357 Y106.000 E26.42725
G1 X127.347 Y108.450 E26.55898
G1 X125.066 Y110.504 E26.68660
G1 X122.780 Y112.008 E26.80037
G1 X122.739 Y112.086 E26.80404
G1 X122.739 Y144.254 E28.14145
G1 X122.413 Y144.580 E28.16060
G1 X117.901 Y144.580 E28.34818
G1 X117.508 Y144.247 F6000.000
G1 F1200
G1 X117.405 Y144.349 E28.35421
G1 X117.405 Y145.802 E28.41460
G1 X117.275 Y145.932 E28.42227
G1 X77.725 Y145.932 E30.06654
G1 X77.595 Y145.802 E30.07421
G1 X77.595 Y111.906 E31.48344
G1 X77.553 Y111.828 E31.48711
G1 X75.139 Y110.241 E31.60722
G1 X72.864 Y108.191 E31.73455
G1 X70.916 Y105.808 E31.86251
G1 X69.353 Y103.160 E31.99035
G1 X68.205 Y100.289 E32.11890
G1 X67.510 Y97.294 E32.24674
G1 X67.277 Y94.240 E32.37406
G1 X67.277 Y74.232 E33.20591
G1 X67.484 Y71.350 E33.32603
G1 X68.099 Y68.531 E33.44599
G1 X69.108 Y65.828 E33.56595
G1 X70.492 Y63.296 E33.68591
G1 X72.222 Y60.987 E33.80587
G1 X74.263 Y58.947 E33.92582
G1 X76.573 Y57.219 E34.04578
G1 X79.106 Y55.837 E34.16574
G1 X81.810 Y54.830 E34.28570
G1 X84.614 Y54.220 E34.40500
G1 X87.488 Y54.013 E34.52479
G1 X112.504 Y54.013 E35.56483
G1 X115.386 Y54.220 E35.68496
G1 X118.205 Y54.834 E35.80492
G1 X120.908 Y55.844 E35.92487
G1 X123.427 Y57.219 E36.04417
G1 X125.737 Y58.947 E36.16413
G1 X127.789 Y60.999 E36.28475
G1 X129.517 Y63.309 E36.40471
G1 X130.899 Y65.842 E36.52467
G1 X131.906 Y68.546 E36.64463
G1 X132.516 Y71.350 E36.76392
G1 X132.722 Y74.224 E36.88372
G1 X132.723 Y94.240 E37.71589
G1 X132.488 Y97.310 E37.84391
G1 X131.790 Y100.305 E37.97176
G1 X130.655 Y103.145 E38.09890
G1 X129.087 Y105.804 E38.22726
G1 X127.122 Y108.204 E38.35620
G1 X124.861 Y110.241 E38.48273
G1 X122.447 Y111.828 E38.60284
G1 X122.405 Y111.906 E38.60651
G1 X122.405 Y144.116 E39.94566
G1 X122.275 Y144.247 E39.95333
G1 X117.568 Y144.247 E40.14902
G1 X117.002 Y143.844 F6000.000
G1 F1200
G1 X117.002 Y145.530 E40.21117
G1 X77.998 Y145.530 E41.64933
G1 X77.998 Y111.639 E42.89894
G1 X75.378 Y109.915 E43.01456
G1 X73.148 Y107.905 E43.12526
G1 X71.242 Y105.571 E43.23638
G1 X69.711 Y102.974 E43.34750
G1 X68.592 Y100.176 E43.45862
G1 X67.910 Y97.241 E43.56974
G1 X67.680 Y94.229 E43.68111
G1 X67.680 Y74.242 E44.41805
G1 X67.882 Y71.415 E44.52255
G1 X68.483 Y68.652 E44.62681
G1 X69.472 Y66.002 E44.73108
G1 X70.827 Y63.521 E44.83535
G1 X72.504 Y61.279 E44.93856
G1 X74.521 Y59.257 E45.04387
G1 X76.785 Y57.563 E45.14813
G1 X79.267 Y56.207 E45.25240
G1 X81.916 Y55.219 E45.35666
G1 X84.679 Y54.618 E45.46093
G1 X87.506 Y54.416 E45.56543
G1 X112.494 Y54.416 E46.48674
G1 X115.292 Y54.616 E46.59019
G1 X118.084 Y55.219 E46.69550
G1 X120.733 Y56.207 E46.79976
G1 X123.215 Y57.563 E46.90403
G1 X125.479 Y59.257 E47.00829
G1 X127.479 Y61.257 E47.11256
G1 X129.173 Y63.521 E47.21682
G1 X130.528 Y66.002 E47.32109
G1 X131.517 Y68.652 E47.42535
G1 X132.118 Y71.415 E47.52962
G1 X132.320 Y74.242 E47.63412
G1 X132.320 Y94.229 E48.37106
G1 X132.090 Y97.241 E48.48243
G1 X131.408 Y100.176 E48.59355
G1 X130.289 Y102.974 E48.70467
G1 X128.758 Y105.571 E48.81579
G1 X126.859 Y107.897 E48.92652
G1 X124.613 Y109.923 E49.03803
G1 X122.002 Y111.639 E49.15323
G1 X122.002 Y143.844 E50.34069
G1 X117.062 Y143.844 E50.52283
G1 X116.646 Y144.026 F6000.000
G1 X116.707 Y143.548 F6000.000
G1 F1200
G1 X116.707 Y145.234 E50.58498
G1 X78.293 Y145.234 E52.00134
G1 X78.293 Y111.479 E53.24592
G1 X75.559 Y109.681 E53.36659
G1 X73.363 Y107.700 E53.47563
G1 X71.485 Y105.401 E53.58509
G1 X69.977 Y102.844 E53.69454
G1 X68.875 Y100.087 E53.80400
G1 X68.203 Y97.196 E53.91346
G1 X67.976 Y94.218 E54.02359
G1 X67.976 Y74.253 E54.75972
G1 X68.176 Y71.457 E54.86305
G1 X68.768 Y68.735 E54.96576
G1 X69.741 Y66.126 E55.06846
G1 X71.076 Y63.681 E55.17117
G1 X72.728 Y61.473 E55.27284
G1 X74.715 Y59.481 E55.37659
G1 X76.945 Y57.812 E55.47928
G1 X79.390 Y56.477 E55.58199
G1 X82.000 Y55.503 E55.68469
G1 X84.722 Y54.911 E55.78740
G1 X87.517 Y54.711 E55.89073
G1 X112.483 Y54.711 E56.81126
G1 X115.250 Y54.909 E56.91356
G1 X118.001 Y55.504 E57.01730
G1 X120.610 Y56.477 E57.12000
G1 X123.055 Y57.812 E57.22270
G1 X125.285 Y59.481 E57.32541
G1 X127.255 Y61.451 E57.42812
G1 X128.924 Y63.681 E57.53082
G1 X130.259 Y66.126 E57.63353
G1 X131.232 Y68.735 E57.73623
G1 X131.824 Y71.457 E57.83894
G1 X132.024 Y74.253 E57.94227
G1 X132.024 Y94.218 E58.67841
G1 X131.797 Y97.196 E58.78853
G1 X131.125 Y100.087 E58.89799
G1 X130.023 Y102.844 E59.00745
G1 X128.515 Y105.401 E59.11691
G1 X126.644 Y107.692 E59.22597
G1 X124.432 Y109.688 E59.33582
G1 X121.707 Y111.479 E59.45607
G1 X121.707 Y143.548 E60.63850
G1 X116.767 Y143.548 E60.82065
G1 X116.411 Y143.253 F6000.000
G1 F1200
G1 X116.411 Y144.938 E60.88280
G1 X78.589 Y144.938 E62.27736
G1 X78.589 Y111.320 E63.51691
G1 X75.740 Y109.446 E63.64263
G1 X73.578 Y107.496 E63.75001
G1 X71.728 Y105.231 E63.85781
G1 X70.243 Y102.713 E63.96560
G1 X69.157 Y99.999 E64.07340
G1 X68.496 Y97.151 E64.18119
G1 X68.271 Y94.206 E64.29008
G1 X68.271 Y74.263 E65.02540
G1 X68.469 Y71.500 E65.12757
G1 X69.052 Y68.819 E65.22872
G1 X70.011 Y66.249 E65.32986
G1 X71.325 Y63.841 E65.43101
G1 X72.953 Y61.667 E65.53112
G1 X74.910 Y59.705 E65.63331
G1 X77.105 Y58.061 E65.73444
G1 X79.513 Y56.746 E65.83559
G1 X82.083 Y55.788 E65.93673
G1 X84.764 Y55.205 E66.03788
G1 X87.528 Y55.007 E66.14005
G1 X112.472 Y55.007 E67.05980
G1 X115.208 Y55.203 E67.16093
G1 X117.917 Y55.788 E67.26312
G1 X120.487 Y56.746 E67.36425
G1 X122.895 Y58.061 E67.46539
G1 X125.091 Y59.705 E67.56654
G1 X127.031 Y61.645 E67.66769
G1 X128.675 Y63.841 E67.76883
G1 X129.989 Y66.249 E67.86998
G1 X130.948 Y68.819 E67.97113
G1 X131.531 Y71.500 E68.07228
G1 X131.729 Y74.263 E68.17444
G1 X131.729 Y94.206 E68.90977
